X:1
T:Title
%%score 1 2
L:1/8
Q:1/4=95
M:4/4
K:Bb
V:1 treble nm="Grand Piano, Staff 1"
V:2 bass nm="Choir Pad, John Brown's Body"
V:1
 [DF]>[DF] [DF]>[DF] [DF]>[CE] [B,D]>[DF] | [FB]>[Fc] [Fd]>[Fd] [Fd]>[Ec] [DB]2 | %2
w: By~American~folk~song,~19th~Century * * * * * * *||
 [FB]>[FA] [EG]>[EG] [EG]>[FA] [GB]>[FA] | [GB]>[EG] [DF]>[EG] [DF]>[B,D] [DF]2 | %4
w: ||
 [DF]>[DF] [DF]>[DF] [DF]>[CE] [B,D]>[DF] | [FB]>[Fc] [Fd]>[Fd] [Fd]>[Ec] [DB]2 | %6
w: ||
 [FB]2 [Gc]2 [Gc]2 [FB]2 | [EA]2 [DB]6- | [DB]2 [DF]2- [DF][CE] [B,D]>[DF] | %9
w: |||
 [FB]>[Fc] [Fd]4 [FB]2- | [FB]2 [EG]2- [EG][FA] [GB]>[FA] | [GB]>[EG] [DF]4 [B,D]2- | %12
w: |||
 [B,D]2 [DF]2- [DF][CE] [B,D]>[DF] | [FB]>[Fc] [Fd]4 [FB]2 | [FB]2 [Gc]2 [Gc]2 [FB]2 | %15
w: |||
 [EA]2 [DB]6- | [DB]2 z2 z4 |] %17
w: ||
V:2
 [B,,B,]>[B,,B,] [B,,B,]>[B,,B,] [B,,B,]>[B,,F,] [B,,F,]>[B,,B,] | %1
 [D,B,]>[F,A,] B,>B, [F,B,]>[F,A,] [B,,B,]2 | %2
 [D,B,]>[D,B,] [E,B,]>[E,B,] [E,B,]>[E,B,] [E,E]>[E,E] | %3
 [E,E]>[E,B,] [B,,B,]>[B,,B,] [B,,B,]>[B,,F,] [B,,B,]2 | %4
 [B,,B,]>[B,,B,] [B,,B,]>[B,,B,] [B,,B,]>[B,,F,] [B,,F,]>[B,,B,] | %5
 [D,B,]>[F,A,] B,>B, [F,B,]>[F,A,] [B,,B,]2 | [D,B,]2 [E,B,]2 [E,E]2 [F,D]2 | [F,C]2 [B,,B,]6- | %8
 [B,,B,]2 [B,,B,]2- [B,,B,][B,,F,] [B,,F,]>[B,,B,] | [D,B,]>[F,A,] B,4 [D,B,]2- | %10
 [D,B,]2 [E,B,]2- [E,B,][E,B,] [E,B,]>[E,B,] | [E,B,]>[E,B,] [B,,B,]4 [B,,F,]2- | %12
 [B,,F,]2 [B,,B,]2- [B,,B,][B,,F,] [B,,F,]>[B,,B,] | [D,B,]>[F,A,] B,4 [D,B,]2 | %14
 [D,B,]2 [E,B,]2 [E,E]2 [F,D]2 | [F,C]2 [B,,B,]6- | [B,,B,]2 z2 z4 |] %17

